icons/square/48/kalgebra.svg

<svg width="48" height="48" version="1.1" viewBox="0 0 48 48.000001" xmlns="http://www.w3.org/2000/svg">
 <defs>
  <linearGradient id="linearGradient4501" x1="-47" x2="-1" y1="2.8779e-15" y2="6.1232e-17" gradientUnits="userSpaceOnUse">
   <stop style="stop-color:#e4e4e4" offset="0"/>
   <stop style="stop-color:#eee" offset="1"/>
  </linearGradient>
 </defs>
 <g transform="translate(0 3.949e-5)">
  <path d="m1 43v0.25c0 2.216 1.784 4 4 4h38c2.216 0 4-1.784 4-4v-0.25c0 2.216-1.784 4-4 4h-38c-2.216 0-4-1.784-4-4zm0 0.5v0.5c0 2.216 1.784 4 4 4h38c2.216 0 4-1.784 4-4v-0.5c0 2.216-1.784 4-4 4h-38c-2.216 0-4-1.784-4-4z" style="opacity:.02"/>
  <path d="m1 43.25v0.25c0 2.216 1.784 4 4 4h38c2.216 0 4-1.784 4-4v-0.25c0 2.216-1.784 4-4 4h-38c-2.216 0-4-1.784-4-4z" style="opacity:.05"/>
  <path d="m1 43v0.25c0 2.216 1.784 4 4 4h38c2.216 0 4-1.784 4-4v-0.25c0 2.216-1.784 4-4 4h-38c-2.216 0-4-1.784-4-4z" style="opacity:.1"/>
 </g>
 <rect transform="rotate(-90)" x="-47" y="1" width="46" height="46" rx="4" style="fill:url(#linearGradient4501)"/>
 <path d="m8.002 1v5.5l-0.00195 0.00195v0.5h-7v1.002l7-0.00195v7h-7v1h6.998v7h-6.998v1h6.998v7h-6.998v1h6.998v7l-6.998-2e-3v1.002h7v6.998h1l-0.00195-5.5645 0.00391 0.0039v-1.4375h6.9961v6.998h1.0039v-6.9961h6.9961v6.9961h1v-6.998h7v6.998h1v-6.9961l7-0.0039v0.5l2e-3 -2e-3v6.502h1v-7h6v-1h-6l-2e-3 -6.9961h6.002v-1.0039h-6.002v-6.9961h6.002v-1.0039h-6.002v-6.9961h6.002v-1.0039h-6l2e-3 -6.9961h5.998v-1h-5.998v-6.0039h-1v5.5098l-0.0059-0.00586v0.5l-6.9961-0.00391v-6h-1.0039v6.002h-6.9961v-6.002h-1v6h-7v-6h-1v6.002h-7v-1.4395l0.0019-4.5625h-0.99995zm1 7.0039h6.998v6.9961h-6.998zm8 0h6.998v6.9961h-6.998zm8 0h6.998v6.9961h-6.998zm8 0h6.998v6.9961h-6.998zm-24 8h6.998v6.9961h-6.998zm8 0h6.998v6.9961h-6.998zm8 0h6.998v6.9961h-6.998zm8 0h6.998v6.9961h-6.998zm-24 8h6.998v6.9961h-6.998zm8 0h6.998v6.9961h-6.998zm8 0h6.998v6.9961h-6.998zm8 0h6.998v6.9961h-6.998zm-24 8h6.998v6.9961h-6.998zm8 0h6.998v6.9961h-6.998zm8 0h6.998v6.9961h-6.998zm8 0h6.998v6.9961h-6.998z" style="fill:#a0dad0"/>
 <g transform="translate(0 3.949e-5)">
  <g transform="translate(0 -1004.4)">
   <path d="m1 1043.4v4c0 2.216 1.784 4 4 4h38c2.216 0 4-1.784 4-4v-4c0 2.216-1.784 4-4 4h-38c-2.216 0-4-1.784-4-4z" style="opacity:.1"/>
  </g>
 </g>
 <g transform="matrix(.9272 0 0 1.0785 -9.6749e-8 -1)">
  <g transform="translate(-1.0785 .9272)">
   <path d="m12.942 12.981v6.4904h2.157v-0.9272l0.70751-0.9272 1.4495 1.8544h2.157l-2.5302-3.2452 2.5302-3.2452h-2.157l-2.157 2.7816v-2.7816zm7.5496 0v12.836l-2.157-5.4185h-5.3926v1.8544h3.8428l3.7058 9.272h2.157v-16.69h18.335v-1.8544h-20.49zm9.7067 3.7088-5.3926 12.981h3.2356l1.0785-2.7816h5.3926l1.0785 2.7816h3.2356l-5.3926-12.981zm1.5423 3.7088 1.6933 3.7088h-3.2356z" style="fill-opacity:.118"/>
   <path transform="matrix(1.0785 0 0 .9272 1.0785 -.9272)" d="m11 14v7h2v-1l0.656-1 1.344 2h2l-2.344-3.5 2.344-3.5h-2l-2 3v-3zm7 0v13.844l-2-5.844h-5v2h3.563l3.439 10h2v-18h17v-2h-19zm8.998 4-5 14h3l1-3h5l1 3h3l-5-14zm1.43 4 1.572 4h-3z" style="fill:#555"/>
  </g>
 </g>
</svg>

<svg width="48" height="48" viewBox="0 0 48 48.000001" xmlns="http://www.w3.org/2000/svg">
  <defs>
    <linearGradient id="a" x1="-47" x2="-1" gradientUnits="userSpaceOnUse">
      <stop offset="0" stop-color="#e4e4e4"/>
      <stop offset="1" stop-color="#eee"/>
    </linearGradient>
  </defs>
  <path d="M1 43v.25c0 2.216 1.784 4 4 4h38c2.216 0 4-1.784 4-4V43c0 2.216-1.784 4-4 4H5c-2.216 0-4-1.784-4-4zm0 .5v.5c0 2.216 1.784 4 4 4h38c2.216 0 4-1.784 4-4v-.5c0 2.216-1.784 4-4 4H5c-2.216 0-4-1.784-4-4z" opacity=".02"/>
  <path d="M1 43.25v.25c0 2.216 1.784 4 4 4h38c2.216 0 4-1.784 4-4v-.25c0 2.216-1.784 4-4 4H5c-2.216 0-4-1.784-4-4z" opacity=".05"/>
  <path d="M1 43v.25c0 2.216 1.784 4 4 4h38c2.216 0 4-1.784 4-4V43c0 2.216-1.784 4-4 4H5c-2.216 0-4-1.784-4-4z" opacity=".1"/>
  <rect transform="rotate(-90)" x="-47" y="1" width="46" height="46" rx="4" fill="url(#a)"/>
  <path d="M8.002 1v5.5L8 6.502v.5H1v1.002l7-.002v7H1v1h6.998v7H1v1h6.998v7H1v1h6.998v7L1 39v1.002h7V47h1l-.002-5.565.004.004v-1.437h6.996V47h1.004v-6.996h6.996V47h1v-6.998h7V47h1v-6.996l7-.004v.5l.002-.002V47h1v-7h6v-1h-6l-.002-6.996H47V31h-6.002v-6.996H47V23h-6.002v-6.996H47V15h-6l.002-6.996H47v-1h-5.998V1h-1v5.51l-.006-.006v.5L33 7V1h-1.004v6.002H25V1h-1v6h-7V1h-1v6.002H9v-1.44L9.002 1h-1zm1 7.004H16V15H9.002zm8 0H24V15h-6.998zm8 0H32V15h-6.998zm8 0H40V15h-6.998zm-24 8H16V23H9.002zm8 0H24V23h-6.998zm8 0H32V23h-6.998zm8 0H40V23h-6.998zm-24 8H16V31H9.002zm8 0H24V31h-6.998zm8 0H32V31h-6.998zm8 0H40V31h-6.998zm-24 8H16V39H9.002zm8 0H24V39h-6.998zm8 0H32V39h-6.998zm8 0H40V39h-6.998z" fill="#a0dad0"/>
  <g>
    <path d="M1 39v4c0 2.216 1.784 4 4 4h38c2.216 0 4-1.784 4-4v-4c0 2.216-1.784 4-4 4H5c-2.216 0-4-1.784-4-4z" opacity=".1"/>
  </g>
  <g>
    <path d="M11 14v7h2v-1l.656-1L15 21h2l-2.346-3.5L17 14h-2l-2 3v-3zm7 0v13.844L16 22h-5v2h3.563l3.436 10h2V16h17v-2H18.001zm9 4l-5 14h3l1-3h5l1 3h3l-5-14zm1.43 4L30 26h-3z" fill-opacity=".118"/>
    <path d="M11 13v7h2v-1l.656-1L15 20h2l-2.344-3.5L17 13h-2l-2 3v-3zm7 0v13.844L16 21h-5v2h3.563l3.439 10h2V15h17v-2h-19zm8.998 4l-5 14h3l1-3h5l1 3h3l-5-14zm1.43 4L30 25h-3z" fill="#555"/>
  </g>
</svg>
